images/footer/social/face.svg

<svg width="30" height="30" viewBox="0 0 30 30" fill="none" xmlns="http://www.w3.org/2000/svg">
<path d="M30 3.32227V26.6719C30 27.4746 29.2567 28.1191 28.346 28.1191H20.6987V17.959H24.596L25.1786 13.998H20.692V11.4668C20.692 10.3184 21.0536 9.53906 22.9353 9.53906H25.3326V5.99414C24.9174 5.94727 23.4978 5.83594 21.8371 5.83594C18.3817 5.83594 16.0112 7.68164 16.0112 11.0742V13.998H12.1004V17.959H16.0112V28.125H1.65402C0.743304 28.125 0 27.4746 0 26.6777V3.32227C0 2.52539 0.743304 1.875 1.65402 1.875H28.3393C29.2567 1.875 30 2.52539 30 3.32227Z" fill="black"/>
</svg>

<svg width="30" height="30" fill="none" xmlns="http://www.w3.org/2000/svg"><path d="M30 3.322v23.35c0 .803-.743 1.447-1.654 1.447h-7.647V17.96h3.897l.583-3.961h-4.487v-2.531c0-1.149.362-1.928 2.243-1.928h2.398V5.994a36.79 36.79 0 00-3.496-.158c-3.455 0-5.826 1.846-5.826 5.238v2.924h-3.91v3.961h3.91v10.166H1.654c-.91 0-1.654-.65-1.654-1.447V3.322c0-.797.743-1.447 1.654-1.447h26.685c.918 0 1.661.65 1.661 1.447z" fill="#000"/></svg>
